dist/icons/svgs/location-plus-solid.svg

<svg xmlns="http://www.w3.org/2000/svg" width="24" height="24" fill="currentcolor" class="icon-location-plus-solid" viewBox="0 0 24 24">
  <path d="M12.8984 21.5599C12.4297 22.1467 11.5312 22.1467 11.0625 21.5599C9.07031 19.0171 4.5 12.9535 4.5 9.511C4.5 5.3643 7.85938 2 12 2C16.1406 2 19.5 5.3643 19.5 9.511C19.5 12.9535 14.9297 19.0171 12.8984 21.5599ZM11.0625 12.9535C11.0625 13.5012 11.4531 13.8924 12 13.8924C12.5078 13.8924 12.9375 13.5012 12.9375 12.9535V10.4499H15.4375C15.9453 10.4499 16.375 10.0587 16.375 9.511C16.375 9.00244 15.9453 8.57213 15.4375 8.57213H12.9375V6.06846C12.9375 5.5599 12.5078 5.12958 12 5.12958C11.4531 5.12958 11.0625 5.5599 11.0625 6.06846V8.57213H8.5625C8.01562 8.57213 7.625 9.00244 7.625 9.511C7.625 10.0587 8.01562 10.4499 8.5625 10.4499H11.0625V12.9535Z"/>
</svg>

<svg xmlns="http://www.w3.org/2000/svg" width="24" height="24" fill="currentColor" class="icon-location-plus-solid" viewBox="0 0 24 24">
  <path d="M12.898 21.56a1.177 1.177 0 0 1-1.835 0C9.07 19.017 4.5 12.954 4.5 9.51 4.5 5.364 7.86 2 12 2s7.5 3.364 7.5 7.511c0 3.443-4.57 9.506-6.602 12.049m-1.835-8.606c0 .547.39.938.937.938a.926.926 0 0 0 .938-.938V10.45h2.5a.926.926 0 0 0 .937-.939.95.95 0 0 0-.937-.939h-2.5V6.068A.95.95 0 0 0 12 5.13a.926.926 0 0 0-.937.938v2.504h-2.5a.926.926 0 0 0-.938.939c0 .548.39.939.938.939h2.5z"/>
</svg>
